BrewingApp/Images/svg/icon_scales.svg

<svg xmlns:x="http://ns.adobe.com/Extensibility/1.0/" xmlns:i="http://ns.adobe.com/AdobeIllustrator/10.0/" xmlns:graph="http://ns.adobe.com/Graphs/1.0/" xmlns="http://www.w3.org/2000/svg" xmlns:xlink="http://www.w3.org/1999/xlink" version="1.1" id="Ebene_1" x="0px" y="0px" width="100px" height="100px" viewBox="0 0 100 100" enable-background="new 0 0 100 100" xml:space="preserve">
<switch>
	<foreignObject requiredExtensions="http://ns.adobe.com/AdobeIllustrator/10.0/" x="0" y="0" width="1" height="1">
		</foreignObject>
	<g i:extraneous="self">
		<path fill="#000000" d="M99.811,57.521c0.022-0.254,0.017-0.516-0.063-0.771c-0.007-0.026-0.026-0.047-0.033-0.073    c-0.007-0.017,0-0.035-0.007-0.052L81.785,8.833c-0.007-0.009-0.014-0.012-0.02-0.02c-0.297-0.764-1.025-1.309-1.897-1.309h-26.46    V0h-3.407h-3.407v7.505H20.131c-0.869,0-1.601,0.545-1.894,1.307c-0.006,0.01-0.02,0.012-0.02,0.021L0.296,56.625    c-0.007,0.017,0,0.035-0.007,0.052c-0.01,0.026-0.026,0.047-0.037,0.073c-0.076,0.256-0.086,0.518-0.063,0.771    c0.007,0.067,0.023,0.124,0.033,0.187c0.046,0.25,0.133,0.484,0.266,0.701c0.02,0.029,0.02,0.067,0.04,0.098    c0.007,0.012,0.023,0.017,0.033,0.028c0.14,0.193,0.306,0.369,0.513,0.508L18.996,70.99c0.346,0.229,0.739,0.344,1.135,0.344    s0.789-0.114,1.135-0.344l17.921-11.947c0.207-0.139,0.373-0.314,0.513-0.508c0.01-0.012,0.026-0.017,0.033-0.028    c0.02-0.03,0.02-0.068,0.04-0.098c0.133-0.217,0.219-0.451,0.266-0.701c0.01-0.062,0.026-0.119,0.033-0.187    c0.023-0.254,0.013-0.516-0.063-0.771c-0.01-0.026-0.027-0.047-0.037-0.073c-0.007-0.017,0-0.035-0.007-0.052l-16.883-45.03    h23.512v81.591H32.08V100h35.843v-6.814H53.408V11.595h23.509L60.03,56.625c-0.007,0.017,0,0.035-0.007,0.052    c-0.007,0.026-0.026,0.047-0.033,0.073c-0.08,0.256-0.086,0.518-0.063,0.771c0.004,0.067,0.023,0.124,0.037,0.187    c0.043,0.25,0.133,0.484,0.267,0.701c0.02,0.029,0.017,0.067,0.036,0.098c0.01,0.012,0.023,0.017,0.03,0.028    c0.14,0.193,0.31,0.369,0.516,0.508L78.734,70.99c0.343,0.229,0.738,0.344,1.134,0.344c0.396,0,0.792-0.114,1.135-0.344    l17.922-11.947c0.206-0.139,0.376-0.314,0.516-0.508c0.007-0.012,0.021-0.017,0.03-0.028c0.02-0.03,0.017-0.068,0.036-0.098    c0.134-0.217,0.224-0.451,0.267-0.701C99.787,57.646,99.807,57.589,99.811,57.521z M5.161,55.298l14.97-39.925l14.97,39.925H5.161    z M79.868,15.373l14.974,39.925H64.896L79.868,15.373z"/>
	</g>
</switch>
</svg>

<?xml version="1.0" encoding="UTF-8" standalone="no"?>
<svg
   xmlns:i="http://ns.adobe.com/AdobeIllustrator/10.0/"
   xmlns:dc="http://purl.org/dc/elements/1.1/"
   xmlns:cc="http://creativecommons.org/ns#"
   xmlns:rdf="http://www.w3.org/1999/02/22-rdf-syntax-ns#"
   xmlns:svg="http://www.w3.org/2000/svg"
   xmlns="http://www.w3.org/2000/svg"
   xmlns:sodipodi="http://sodipodi.sourceforge.net/DTD/sodipodi-0.dtd"
   xmlns:inkscape="http://www.inkscape.org/namespaces/inkscape"
   version="1.1"
   id="Ebene_1"
   x="0px"
   y="0px"
   width="250"
   height="250"
   viewBox="0 0 250 250"
   enable-background="new 0 0 100 100"
   xml:space="preserve"
   inkscape:version="0.48.2 r9819"
   sodipodi:docname="icon_scales.svg"
   inkscape:export-filename="/Users/tom/Documents/Programming/C#/BrewingApp/BrewingApp/Images/icon_scales_small.png"
   inkscape:export-xdpi="90"
   inkscape:export-ydpi="90"><metadata
   id="metadata3568"><rdf:RDF><cc:Work
       rdf:about=""><dc:format>image/svg+xml</dc:format><dc:type
         rdf:resource="http://purl.org/dc/dcmitype/StillImage" /><dc:title></dc:title></cc:Work></rdf:RDF></metadata><defs
   id="defs3566" /><sodipodi:namedview
   pagecolor="#ffffff"
   bordercolor="#666666"
   borderopacity="1"
   objecttolerance="10"
   gridtolerance="10"
   guidetolerance="10"
   inkscape:pageopacity="0"
   inkscape:pageshadow="2"
   inkscape:window-width="1623"
   inkscape:window-height="1006"
   id="namedview3564"
   showgrid="false"
   inkscape:zoom="1.18"
   inkscape:cx="-120.75782"
   inkscape:cy="98.449536"
   inkscape:window-x="57"
   inkscape:window-y="0"
   inkscape:window-maximized="1"
   inkscape:current-layer="Ebene_1" />
<switch
   id="switch3556"
   transform="matrix(2.2417068,0,0,2.1483051,12.914264,17.584745)"
   style="fill:#ffffff">
	<foreignObject
   requiredExtensions="http://ns.adobe.com/AdobeIllustrator/10.0/"
   x="0"
   y="0"
   width="1"
   height="1"
   id="foreignObject3558">
		</foreignObject>
	<g
   i:extraneous="self"
   id="g3560"
   style="fill:#ffffff">
		<path
   d="m 99.811,57.521 c 0.022,-0.254 0.017,-0.516 -0.063,-0.771 -0.007,-0.026 -0.026,-0.047 -0.033,-0.073 -0.007,-0.017 0,-0.035 -0.007,-0.052 L 81.785,8.833 C 81.778,8.824 81.771,8.821 81.765,8.813 81.468,8.049 80.74,7.504 79.868,7.504 H 53.408 V 0 H 50.001 46.594 V 7.505 H 20.131 c -0.869,0 -1.601,0.545 -1.894,1.307 -0.006,0.01 -0.02,0.012 -0.02,0.021 L 0.296,56.625 c -0.007,0.017 0,0.035 -0.007,0.052 -0.01,0.026 -0.026,0.047 -0.037,0.073 -0.076,0.256 -0.086,0.518 -0.063,0.771 0.007,0.067 0.023,0.124 0.033,0.187 0.046,0.25 0.133,0.484 0.266,0.701 0.02,0.029 0.02,0.067 0.04,0.098 0.007,0.012 0.023,0.017 0.033,0.028 0.14,0.193 0.306,0.369 0.513,0.508 L 18.996,70.99 c 0.346,0.229 0.739,0.344 1.135,0.344 0.396,0 0.789,-0.114 1.135,-0.344 L 39.187,59.043 c 0.207,-0.139 0.373,-0.314 0.513,-0.508 0.01,-0.012 0.026,-0.017 0.033,-0.028 0.02,-0.03 0.02,-0.068 0.04,-0.098 0.133,-0.217 0.219,-0.451 0.266,-0.701 0.01,-0.062 0.026,-0.119 0.033,-0.187 0.023,-0.254 0.013,-0.516 -0.063,-0.771 -0.01,-0.026 -0.027,-0.047 -0.037,-0.073 -0.007,-0.017 0,-0.035 -0.007,-0.052 L 23.082,11.595 H 46.594 V 93.186 H 32.08 V 100 H 67.923 V 93.186 H 53.408 V 11.595 H 76.917 L 60.03,56.625 c -0.007,0.017 0,0.035 -0.007,0.052 -0.007,0.026 -0.026,0.047 -0.033,0.073 -0.08,0.256 -0.086,0.518 -0.063,0.771 0.004,0.067 0.023,0.124 0.037,0.187 0.043,0.25 0.133,0.484 0.267,0.701 0.02,0.029 0.017,0.067 0.036,0.098 0.01,0.012 0.023,0.017 0.03,0.028 0.14,0.193 0.31,0.369 0.516,0.508 L 78.734,70.99 c 0.343,0.229 0.738,0.344 1.134,0.344 0.396,0 0.792,-0.114 1.135,-0.344 L 98.925,59.043 c 0.206,-0.139 0.376,-0.314 0.516,-0.508 0.007,-0.012 0.021,-0.017 0.03,-0.028 0.02,-0.03 0.017,-0.068 0.036,-0.098 0.134,-0.217 0.224,-0.451 0.267,-0.701 0.013,-0.062 0.033,-0.119 0.037,-0.187 z M 5.161,55.298 20.131,15.373 35.101,55.298 H 5.161 z M 79.868,15.373 94.842,55.298 H 64.896 L 79.868,15.373 z"
   id="path3562"
   inkscape:connector-curvature="0"
   style="fill:#ffffff" />
	</g>
</switch>
</svg>
